X: 1
T: Man From Barnagrove, The
M: 4/4
L: 1/8
R: hornpipe
K: Ddor
|:FE|DA,DE FEFG|AG (3ABc defg|(3agf ge fedc|(3ABc AF EA,CE|
DA,DE FEFG|AGFA c2de|fage fedc|A2d2 d2:|
|:fg|afdc (3ABc fg|afdc d2fg|(3agf ge fedc|(3ABc AF G2AG|
FADE FEFG|AG (3ABc defg|(3agf (3gfe fedc|A2d2 d2:|
